src/16/actions/office-chart-area-focus-peak-node.svg

<svg xmlns="http://www.w3.org/2000/svg" width="16" height="16" viewBox="0 0 16 16">
 <defs>
  <style id="current-color-scheme" type="text/css">
   .ColorScheme-Text { color:#565656; } .ColorScheme-Highlight { color:#5294e2; }
  </style>
 </defs>
 <path style="fill:currentColor" class="ColorScheme-Text" d="m 2,2 0,5.9960938 0,1 L 2,14 l 12,0 0,-1 -11,0 0,-1 3.005859,0 0,-0.0078 0.0078,0.0078 2,-2 1.591797,0 2,2 2.40039,0 0,-1 -1.986328,0 -2,-2 -1.414062,0 -1.00586,0 -2,2 L 3,11 3,8.9960938 l 2,0 0,-0.00781 0.0078,0.00781 L 6.003906,8 7,8 8,8 8,7 7,7 7,6 6,6 6,7.9960938 5.296875,7.2929688 4.59375,7.9960938 3,7.9960938 3,2 2,2 Z M 6,2 6,3 6,4 7,4 7,3 8,3 8,2 6,2 Z m 4,0 0,1 1,0 0,1 1,0 0,-2 -1,0 -1,0 z M 9,3.5898438 7.296875,5.2929688 8.003906,6 9,5.0039062 9.996094,6 10.703125,5.2929688 9,3.5898438 Z M 11,6 l 0,1 -1,0 0,1 2,0 0,-1 0,-1 -1,0 z m 3,0 -1,1 1,0 0,-1 z"/>
 <path style="fill:currentColor;opacity:0.5" class="ColorScheme-Text" d="M 9 5 L 7.0039062 7 L 8 7 L 8 8 L 6.0058594 8 L 5.0078125 9 L 1.9980469 9 L 1.9980469 13 L 6.9980469 13 L 8.9980469 12.992188 L 13.998047 13 L 13.998047 7 L 11.998047 7 L 11.998047 8 L 9.9980469 8 L 9.9980469 7 L 10.998047 7 L 9 5 z"/>
</svg>

<svg xmlns="http://www.w3.org/2000/svg" width="16" height="16"><defs><style id="current-color-scheme" type="text/css">.ColorScheme-Text{color:#565656}</style></defs><path class="ColorScheme-Text" d="M2 2v12h12v-1H3v-1h3.006v-.008l.008.008 2-2h1.591l2 2h2.4v-1H12.02l-2-2H7.6l-2 2H3V8.996h2v-.008l.008.008L6.004 8H8V7H7V6H6v1.996l-.703-.703-.703.703H3V2H2zm4 0v2h1V3h1V2H6zm4 0v1h1v1h1V2h-2zM9 3.59L7.297 5.293 8.004 6 9 5.004 9.996 6l.707-.707L9 3.59zM11 6v1h-1v1h2V6h-1zm3 0l-1 1h1V6z" fill="currentColor"/><path class="ColorScheme-Text" d="M9 5L7.004 7H8v1H6.006l-.998 1h-3.01v4h5l2-.008 5 .008V7h-2v1h-2V7h1L9 5z" fill="currentColor" opacity=".5"/></svg>
